X:118
T: De Kerw
N: D0175
O: Europa, Mitteleuropa, Deutschland, Untermainfranken, Spessart
R: Brauchtums - Lied
M: 2/4
L: 1/16
K: G
D2 | G3GG2G2 | G2B2G4z2
BB | A3GF2E2 | D4z2
dd | d2d2c2A2 | G4z2
B2 | d2d2c2A2 | d2d2B2
G2 | A2A2B3A | G2B2d2
B2 | d2d2c2A2 | d2d2B2
G2 | A2A2B3A | G4z2

